X:1
T: The Basket of Turf
C:
R:Jig
Q:180
K:Em
M:6/8
L:1/16
E2|E2B2B2 B2A2G2|F2D2F2 A2G2F2|E2B2B2 B2c2d2|A2G2F2 E4E2|E2G2B2 B2A2G2|F2D2F2 A2G2F2|G2A2B2 B2c2d2|A2G2F2 E4E2|
E2B2B2 B2A2G2|F2D2F2 A2G2F2|E2B2B2 B2c2d2|A2G2F2 E4E2|E2G2B2 B2A2G2|F2D2F2 A2G2F2|G2A2B2 B2c2d2|A2G2F2 E4B2|
B2e2e2 e2f2g2|d2c2B2 A2G2F2|E2e2e2 e2f2g2|f2^d2f2 e4e2|E2e2e2 e2f2g2|d2c2B2 A2G2F2|G2A2B2 B2c2d2|A2G2F2 E4B2|
B2e2e2 e2f2g2|d2c2B2 A2G2F2|E2e2e2 e2f2g2|f2^d2f2 e4e2|E2e2e2 e2f2g2|d2c2B2 A2G2F2|G2A2B2 B2c2d2|A2G2F2 E4||
